X:732
%%etbk:tnset id:518,pos:2,rep:3x,ant:
%%etbk:color #ffffcc
%%etbk:pldat 2016-08-21T11:25,2016-08-04T18:22,2016-07-12T16:55,2016-06-14T17:43,2016-06-12T13:09,2016-05-29T15:03,2016-04-12T16:57,2016-03-30T17:05,2016-03-21T18:37,2016-03-17T18:00,2016-03-14T18:37,2016-02-13T14:53,2016-01-30T14:19,2016-01-27T17:11,2016-01-19T17:15,2016-01-17T14:44,2016-01-14T18:21,2016-01-13T16:45,2016-01-12T17:22,2016-01-10T13:41,2016-01-02T13:29,2016-01-01T16:21,2015-12-31T14:32,2015-12-28T16:20,2015-12-23T17:14,2015-12-16T16:45,2015-12-15T16:10,2015-12-13T14:54,2015-08-19T16:54,2015-08-18T16:36,2015-08-17T18:39,2015-08-16T13:55,2015-08-15T15:50,2015-08-13T18:24,2015-08-11T15:56,2015-08-09T14:37,2015-08-05T17:15,2015-08-04T17:27,2015-08-02T11:40,2015-08-01T16:35,2015-07-31T18:11,2015-07-30T19:03,2015-07-29T15:57,2015-07-27T18:22,2015-07-25T14:00,2015-07-24T17:24,2015-07-23T17:57,2015-07-22T15:18,2015-07-20T18:41,2015-07-19T14:34,2015-07-18T14:33,2015-07-17T09:44,2015-07-16T16:13,2015-07-15T17:05,2015-07-15T12:08,2015-07-11T13:44,2015-05-19T17:14,2015-05-18T19:08,2015-05-17T16:16
T: Second of August
Z: Piano Box Version by Martin Fleischmann
H: Created 2015-05-04 /  Last Modified 2015-12-28
M: 6/8
L: 1/8
R: Jig
K:Edor
A,|:!2!B,!4!D!2!E !4!GE A  | !5!AG!2!E !2!EE !1!A,  | !2!B,!4!D!2!E !4!GE !5!A  | !4!AGA B2B, |
B,DE GE !4!A  | !2!AGB AB!5!d  | -dBA !3!BGA   |1  !2!AG!2!E EE B,  :|2  AGE EE d  :|
|:!4!d!3!B!2!A !3!B!4!d!3!B |  !4!dBd eEe |  !4!dBA  !3!B!4!d!3!B |  !3!AGE EEd |
dBA BdB |  dBd eee | dBA BdB |1  AGE EEd :|2 !2!AB!3!d !3!B!1!d!2!e | 
|: !3!g!2!e!1!d ege | aaa bbb  | abg age  | !3!ge!1!d !2!B!1!de  |
ged ege | !4!a2!2!a !3!bbb  |1 !5!d'ba !1!g!5!ba | g!2!e!1!d !2!Bde :|2  !5!d'ba !3!b2!5!^a |!4!a!3!g!2!e e!1!d!2!B :| 
|:!1!A2!2!A ABG | !2!ABd !5!e2e | !2!ABG ABG | !3!A!2!G!1!E !2!EE!1!G |
!2!ABG AAA | !2!ABd !5!eee |  dBA BAG |1!3!A!2!G!1!E !2!EE!1!G:|2 AGE E3 |


